white/nio.svg

<!-- Generated by IcoMoon.io -->
<svg version="1.1" xmlns="http://www.w3.org/2000/svg" width="32" height="32" viewBox="0 0 32 32">
<title>nio</title>
<path fill="#fff" d="M16 32c-8.837 0-16-7.163-16-16s7.163-16 16-16 16 7.163 16 16-7.163 16-16 16zM16 13.764h4.822l-4.822-8.264-4.822 8.264h4.822zM16.655 23.5h9.845l-4.919-8.44-4.926 8.44zM12.83 19.191l-2.411-4.131-4.919 8.44h9.845l-2.515-4.309z"></path>
</svg>

<svg xmlns="http://www.w3.org/2000/svg" width="32" height="32" viewBox="0 0 32 32"><path fill="#FFF" d="M16 32C7.163 32 0 24.837 0 16S7.163 0 16 0s16 7.163 16 16-7.163 16-16 16zm0-18.236h4.822L16 5.5l-4.822 8.264H16zm.655 9.736H26.5l-4.919-8.44-2.41 4.131-2.516 4.309zm-3.825-4.309l-2.411-4.131L5.5 23.5h9.845l-2.515-4.309z"/></svg>
